picto/emergency-brake.svg

<svg class="color-immutable" width="24" height="24" viewBox="0 0 24 24" fill="none" xmlns="http://www.w3.org/2000/svg"><path d="M0 22.5V1.5C0 0.675 0.675 0 1.5 0H22.5C23.325 0 24 0.675 24 1.5V22.5C24 23.325 23.325 24 22.5 24H1.5C0.675 24 0 23.325 0 22.5Z" fill="#237F52"/><path d="M5.87695 16.307L7.80995 14.374V15.582L5.39295 17.999L2.97595 15.582V14.374L4.90995 16.307V11.715H5.87695V16.307Z" fill="white"/><path d="M19.8299 3V5.886H19.8319C19.8319 6.294 19.5019 6.624 19.0939 6.624H19.0049H17.4519H11.6369H9.7229C9.3149 6.624 8.9849 6.293 8.9849 5.886H8.9869L8.9899 3.002L7.8269 3V6.624V11.817C7.8279 12.819 8.6019 13.635 9.5829 13.711V12.541C9.2449 12.473 8.9899 12.175 8.9899 11.817V8.524C8.9899 8.118 9.3209 7.788 9.7279 7.787H19.0999C19.5049 7.787 19.8359 8.118 19.8359 8.524V11.817C19.8359 12.18 19.5729 12.48 19.2299 12.542V13.711C20.2179 13.643 20.9989 12.823 20.9999 11.816V6.624V3H19.8299Z" fill="white"/><path d="M18.17 11.222C17.738 11.222 17.388 11.572 17.388 12.004V14.048H17.075V11.058C17.075 10.626 16.725 10.276 16.293 10.276C15.861 10.276 15.511 10.626 15.511 11.058V13.437H15.197V10.434C15.197 10.002 14.847 9.652 14.415 9.652C13.983 9.652 13.632 10.002 13.632 10.434V12.793H13.319V10.77C13.319 10.338 12.969 9.988 12.537 9.988C12.105 9.988 11.755 10.338 11.755 10.77V14.699H11.441L11.44 14.7V12.69C11.44 12.193 11.128 11.751 10.659 11.586C10.597 11.564 10.531 11.553 10.464 11.553C10.142 11.553 9.87895 11.816 9.87895 12.138V15.913L9.87695 15.915C9.87695 16.306 9.95795 16.709 10.088 17.023C10.218 17.337 11.465 20.349 11.465 20.349L17.955 20.348L18.756 18.406C18.888 18.06 18.954 17.693 18.954 17.3C18.954 17.246 18.954 12.005 18.954 12.005C18.952 11.572 18.602 11.222 18.17 11.222Z" fill="white"/></svg>

<svg class="color-immutable" width="24" height="24" viewBox="0 0 24 24" fill="none" xmlns="http://www.w3.org/2000/svg"><g clip-path="url(#a)"><path d="M0 22.5v-21C0 .675.675 0 1.5 0h21c.825 0 1.5.675 1.5 1.5v21c0 .825-.675 1.5-1.5 1.5h-21C.675 24 0 23.325 0 22.5Z" fill="#237F52"/><path d="m5.877 16.307 1.933-1.933v1.208l-2.417 2.417-2.417-2.417v-1.208l1.934 1.933v-4.592h.967v4.592ZM19.83 3v2.886h.002c0 .408-.33.738-.738.738H9.723a.738.738 0 0 1-.738-.738h.002l.003-2.884L7.827 3v8.817a1.902 1.902 0 0 0 1.756 1.894v-1.17a.74.74 0 0 1-.593-.724V8.524a.74.74 0 0 1 .738-.737H19.1c.405 0 .736.331.736.737v3.293a.738.738 0 0 1-.606.725v1.169A1.9 1.9 0 0 0 21 11.816V3h-1.17Z" fill="#fff"/><path d="M18.17 11.222a.782.782 0 0 0-.782.782v2.044h-.313v-2.99a.782.782 0 1 0-1.564 0v2.379h-.314v-3.003a.782.782 0 1 0-1.565 0v2.359h-.313V10.77a.782.782 0 1 0-1.564 0v3.929h-.314l-.001.001v-2.01c0-.497-.312-.939-.781-1.104a.586.586 0 0 0-.78.552v3.775l-.002.002c0 .391.08.794.211 1.108l1.377 3.326 6.49-.001.801-1.942a3.07 3.07 0 0 0 .198-1.106v-5.295a.785.785 0 0 0-.784-.783Z" fill="#fff"/></g><defs><clipPath id="a"><path fill="#fff" d="M0 0h24v24H0z"/></clipPath></defs></svg>
